images/preferences/6.svg

<svg width="52" height="52" viewBox="0 0 52 52" fill="none" xmlns="http://www.w3.org/2000/svg">
<g clip-path="url(#clip0)">
<path d="M41.0583 35.4419C40.0378 33.0879 36.3869 29.8205 32.8597 26.6634C30.8923 24.9039 29.0333 23.2403 27.8482 21.9291C27.5513 21.5983 27.1072 21.4928 26.715 21.6486C25.9849 21.9411 25.5342 22.1664 25.1789 22.3414C24.6373 22.6098 24.4553 22.7009 23.725 22.7824C23.4022 22.8184 23.1119 23.0102 22.932 23.3074C21.4002 25.8411 19.8142 25.6254 18.7547 25.2323C18.4167 25.1077 18.356 24.947 18.3236 24.7937C18.0961 23.7413 19.2379 21.2914 20.7177 19.6541C24.2385 15.7563 26.0542 14.7806 29.8892 16.6768C34.2398 18.8294 38.5992 20.5147 38.6425 20.5315C39.2124 20.7496 39.8255 20.4188 40.0227 19.7931C40.2177 19.1674 39.9208 18.4842 39.3553 18.2661C39.3119 18.2494 35.0393 16.5977 30.7753 14.4858C25.8072 12.0286 23.0814 13.6467 19.1879 17.9569C17.7059 19.5966 15.6931 22.9142 16.2131 25.3474C16.4362 26.383 17.0949 27.1501 18.0742 27.5072C20.5291 28.4038 22.7693 27.5455 24.4377 25.0957C25.1267 24.9783 25.5016 24.8057 26.0648 24.5252C26.2685 24.4245 26.5068 24.3071 26.8232 24.1656C28.0626 25.4529 29.7352 26.9511 31.4967 28.526C34.6817 31.3762 38.2936 34.6077 39.1061 36.4775C39.5069 37.4003 39.0757 38.0021 38.7832 38.2777C38.3542 38.6852 37.7671 38.8147 37.4486 38.5677C37.0976 38.3016 36.6404 38.2849 36.2786 38.5246C35.9146 38.7642 35.7109 39.2173 35.7564 39.6824C35.8301 40.4447 35.1996 40.881 34.9266 41.032C34.2332 41.4204 33.5096 41.3533 33.2387 41.0752C32.9353 40.7636 32.4998 40.6725 32.1142 40.8307C31.7286 40.9912 31.4598 41.3844 31.4208 41.8398C31.3558 42.6261 30.8293 43.3812 30.1425 43.676C29.811 43.815 29.33 43.899 28.8988 43.4626C28.6302 43.1942 28.2575 43.091 27.9087 43.1845C27.5556 43.2804 27.2717 43.5633 27.1482 43.9396C27.1071 44.0595 27.0138 44.3472 25.9998 44.3472C25.2783 44.3472 23.9805 43.8078 23.3457 43.3427C22.5852 42.789 17.8163 38.8529 13.6976 35.0366C13.1191 34.4972 12.1181 33.3417 11.2341 32.3206C10.4497 31.4144 9.73258 30.5922 9.36422 30.247C8.90272 29.8156 8.22022 29.8803 7.83672 30.3885C7.45108 30.8943 7.50735 31.6519 7.96458 32.0785C8.30045 32.3926 8.95045 33.1524 9.66758 33.9794C10.634 35.0965 11.6327 36.2519 12.3044 36.8752C16.3388 40.6124 21.1878 44.6469 22.1541 45.3492C22.9514 45.9293 24.6696 46.7443 25.9999 46.7443C27.0681 46.7443 27.8893 46.4734 28.4591 45.9437C29.2217 46.2722 30.0884 46.2745 30.9226 45.9149C31.9084 45.493 32.7187 44.642 33.1781 43.6113C34.0317 43.8127 35.0089 43.6712 35.8972 43.1775C36.7661 42.6933 37.3943 41.9525 37.7063 41.0871C38.5687 41.1374 39.457 40.7994 40.1915 40.1019C41.4353 38.9249 41.7776 37.0936 41.0583 35.4419Z" fill="url(#paint0_linear)"/>
<path d="M21.6681 15.5811H11.9181C11.3201 15.5811 10.8347 16.1181 10.8347 16.7797C10.8347 17.4413 11.3201 17.9783 11.9181 17.9783H21.6681C22.2661 17.9783 22.7514 17.4413 22.7514 16.7797C22.7514 16.1181 22.2661 15.5811 21.6681 15.5811Z" fill="url(#paint1_linear)"/>
<path d="M44.2307 32.8913C43.8949 32.3424 43.2232 32.1914 42.7271 32.5653L39.5595 34.9193C39.0633 35.2884 38.9311 36.034 39.2648 36.5829C39.475 36.9257 39.8173 37.1127 40.1662 37.1127C40.3721 37.1127 40.5822 37.048 40.7686 36.909L43.9362 34.555C44.4322 34.1858 44.5644 33.4403 44.2307 32.8913Z" fill="url(#paint2_linear)"/>
<path d="M37.5056 38.6106C36.7299 37.9346 33.2611 34.0057 31.1161 31.5318C30.7022 31.0523 30.0154 31.0356 29.5842 31.4958C29.1508 31.9537 29.1378 32.7136 29.5517 33.1907C30.1086 33.8331 35.0203 39.4976 36.1622 40.4949C36.3593 40.6674 36.5977 40.7514 36.8317 40.7514C37.1502 40.7514 37.4687 40.5932 37.6853 40.2935C38.0559 39.7756 37.9758 39.0205 37.5056 38.6106Z" fill="url(#paint3_linear)"/>
<path d="M33.1776 41.0151C31.8797 39.8668 28.619 36.0338 27.8822 35.1468C27.4749 34.6578 26.7924 34.629 26.3504 35.0749C25.9105 35.5232 25.8802 36.2831 26.2854 36.7698C26.3244 36.8153 30.2157 41.4634 31.8234 42.8874C32.0227 43.0623 32.2632 43.1486 32.4994 43.1486C32.8157 43.1486 33.132 42.9928 33.3465 42.7004C33.7193 42.1825 33.6435 41.4274 33.1776 41.0151Z" fill="url(#paint4_linear)"/>
<path d="M28.8641 43.4289C27.3193 41.9883 24.1581 38.2654 23.5406 37.5343C23.1311 37.0501 22.4443 37.0237 22.0088 37.4767C21.5711 37.9298 21.5494 38.6873 21.9568 39.1716C22.8451 40.2239 25.8698 43.7718 27.4666 45.2628C27.6703 45.4521 27.9173 45.5456 28.1643 45.5456C28.4719 45.5456 28.7796 45.3994 28.9941 45.1189C29.3798 44.6107 29.3213 43.8556 28.8641 43.4289Z" fill="url(#paint5_linear)"/>
<path d="M12.662 13.5124C10.8051 11.5659 3.38 10.9354 1.14837 10.7892C0.840734 10.7725 0.556867 10.8851 0.340234 11.1128C0.1235 11.3381 0 11.6546 0 11.9854V33.5599C0 34.2215 0.485367 34.7585 1.08337 34.7585H7.58337C8.05137 34.7585 8.46737 34.4253 8.6125 33.9315C8.77063 33.3944 12.5039 20.7183 12.9956 14.4857C13.0239 14.1212 12.9025 13.7617 12.662 13.5124ZM6.7925 32.3613H2.16663V13.2703C5.6485 13.5747 9.4055 14.2363 10.7705 14.9698C10.1964 20.2196 7.5985 29.547 6.7925 32.3613Z" fill="url(#paint6_linear)"/>
<path d="M50.9178 13.1836C42.4114 13.1836 37.6924 15.5927 37.4953 15.6934C37.2137 15.8396 37.0034 16.1105 36.9168 16.439C36.8302 16.7674 36.8734 17.1198 37.0359 17.4122C38.3749 19.7974 42.5674 33.0441 43.3734 36.2755C43.5034 36.7956 43.9303 37.1552 44.4178 37.1552H50.9178C51.5158 37.1552 52.0011 36.6182 52.0011 35.9566V14.3821C52.0011 13.7181 51.5158 13.1836 50.9178 13.1836ZM49.8345 34.7581H45.2281C44.2011 31.0568 41.1678 21.4058 39.4756 17.417C41.1288 16.7962 44.68 15.7294 49.8345 15.5952V34.7581Z" fill="url(#paint7_linear)"/>
</g>
<defs>
<linearGradient id="paint0_linear" x1="3.34962" y1="8.10471" x2="48.0366" y2="60.3608" gradientUnits="userSpaceOnUse">
<stop stop-color="#1C2D5A"/>
<stop offset="1" stop-color="#4FC3DD" stop-opacity="0.96"/>
</linearGradient>
<linearGradient id="paint1_linear" x1="9.34513" y1="15.2059" x2="10.4431" y2="21.5058" gradientUnits="userSpaceOnUse">
<stop stop-color="#1C2D5A"/>
<stop offset="1" stop-color="#4FC3DD" stop-opacity="0.96"/>
</linearGradient>
<linearGradient id="paint2_linear" x1="38.4138" y1="31.6155" x2="44.6397" y2="39.6801" gradientUnits="userSpaceOnUse">
<stop stop-color="#1C2D5A"/>
<stop offset="1" stop-color="#4FC3DD" stop-opacity="0.96"/>
</linearGradient>
<linearGradient id="paint3_linear" x1="28.1665" y1="29.6603" x2="41.1392" y2="43.1941" gradientUnits="userSpaceOnUse">
<stop stop-color="#1C2D5A"/>
<stop offset="1" stop-color="#4FC3DD" stop-opacity="0.96"/>
</linearGradient>
<linearGradient id="paint4_linear" x1="25.0521" y1="33.4463" x2="36.4003" y2="45.2862" gradientUnits="userSpaceOnUse">
<stop stop-color="#1C2D5A"/>
<stop offset="1" stop-color="#4FC3DD" stop-opacity="0.96"/>
</linearGradient>
<linearGradient id="paint5_linear" x1="20.7173" y1="35.8399" x2="32.0696" y2="47.6808" gradientUnits="userSpaceOnUse">
<stop stop-color="#1C2D5A"/>
<stop offset="1" stop-color="#4FC3DD" stop-opacity="0.96"/>
</linearGradient>
<linearGradient id="paint6_linear" x1="-1.62496" y1="7.03616" x2="27.5669" y2="25.3087" gradientUnits="userSpaceOnUse">
<stop stop-color="#1C2D5A"/>
<stop offset="1" stop-color="#4FC3DD" stop-opacity="0.96"/>
</linearGradient>
<linearGradient id="paint7_linear" x1="34.982" y1="9.43205" x2="65.8733" y2="31.9337" gradientUnits="userSpaceOnUse">
<stop stop-color="#1C2D5A"/>
<stop offset="1" stop-color="#4FC3DD" stop-opacity="0.96"/>
</linearGradient>
<clipPath id="clip0">
<rect width="52" height="52" fill="white"/>
</clipPath>
</defs>
</svg>

<svg width="52" height="52" fill="none" xmlns="http://www.w3.org/2000/svg"><g clip-path="url(#a)"><path d="M41.058 35.442c-1.02-2.354-4.671-5.622-8.198-8.779-1.968-1.76-3.827-3.423-5.012-4.734a1.01 1.01 0 0 0-1.133-.28c-.73.292-1.18.517-1.536.692-.542.269-.724.36-1.454.441a1.071 1.071 0 0 0-.793.525c-1.532 2.534-3.118 2.318-4.177 1.925-.338-.124-.399-.285-.431-.438-.228-1.053.914-3.503 2.394-5.14 3.52-3.898 5.336-4.873 9.171-2.977 4.35 2.152 8.71 3.838 8.753 3.855.57.218 1.183-.113 1.38-.739.196-.626-.101-1.309-.667-1.527-.043-.017-4.316-1.668-8.58-3.78-4.968-2.457-7.694-.84-11.587 3.47-1.482 1.64-3.495 4.958-2.975 7.391.223 1.036.882 1.803 1.861 2.16 2.455.897 4.695.038 6.364-2.411.689-.118 1.064-.29 1.627-.57.203-.102.442-.219.758-.36 1.24 1.287 2.912 2.785 4.674 4.36 3.185 2.85 6.797 6.082 7.61 7.951.4.923-.031 1.525-.324 1.8-.429.408-1.016.538-1.334.29a.998.998 0 0 0-1.17-.042c-.364.24-.568.692-.523 1.157.074.763-.556 1.199-.83 1.35-.693.388-1.416.321-1.687.043a1.016 1.016 0 0 0-1.125-.244c-.385.16-.654.553-.693 1.009-.065.786-.592 1.541-1.279 1.836-.331.139-.812.223-1.243-.213a1.022 1.022 0 0 0-.99-.279c-.353.096-.637.38-.76.756-.042.12-.135.407-1.15.407-.72 0-2.018-.54-2.653-1.004-.76-.554-5.53-4.49-9.648-8.306-.579-.54-1.58-1.695-2.464-2.716-.784-.907-1.501-1.729-1.87-2.074-.461-.431-1.144-.367-1.527.142-.386.505-.33 1.263.128 1.69.335.314.985 1.073 1.703 1.9.966 1.117 1.965 2.273 2.636 2.896 4.035 3.737 8.884 7.772 9.85 8.474.797.58 2.516 1.395 3.846 1.395 1.068 0 1.89-.27 2.46-.8.762.328 1.628.33 2.463-.03.985-.421 1.796-1.272 2.255-2.303.854.202 1.83.06 2.72-.433.868-.485 1.496-1.225 1.808-2.09.863.05 1.751-.289 2.485-.986 1.244-1.177 1.587-3.008.867-4.66Z" fill="url(#b)"/><path d="M21.668 15.581h-9.75c-.598 0-1.083.537-1.083 1.199 0 .661.485 1.198 1.083 1.198h9.75c.598 0 1.083-.537 1.083-1.198 0-.662-.485-1.199-1.083-1.199Z" fill="url(#c)"/><path d="M44.23 32.891c-.335-.549-1.007-.7-1.503-.326L39.56 34.92c-.497.37-.629 1.115-.295 1.664.21.343.552.53.901.53.206 0 .416-.065.603-.204l3.167-2.354c.496-.37.628-1.115.295-1.664Z" fill="url(#d)"/><path d="M37.506 38.61c-.776-.675-4.245-4.604-6.39-7.078a1.009 1.009 0 0 0-1.532-.036 1.29 1.29 0 0 0-.032 1.695c.557.642 5.468 6.307 6.61 7.304.197.172.436.256.67.256.318 0 .637-.158.853-.457.37-.518.29-1.273-.18-1.683Z" fill="url(#e)"/><path d="M33.178 41.015c-1.298-1.148-4.559-4.981-5.296-5.868-.407-.49-1.09-.518-1.532-.072a1.292 1.292 0 0 0-.065 1.695c.04.045 3.93 4.693 5.538 6.117.2.175.44.262.676.262.317 0 .633-.156.847-.449.373-.518.298-1.273-.168-1.685Z" fill="url(#f)"/><path d="M28.864 43.429c-1.545-1.44-4.706-5.164-5.323-5.895-.41-.484-1.097-.51-1.532-.057-.438.453-.46 1.21-.052 1.695.888 1.052 3.913 4.6 5.51 6.09.203.19.45.284.697.284.308 0 .616-.147.83-.427.386-.508.327-1.263-.13-1.69Z" fill="url(#g)"/><path d="M12.662 13.512c-1.857-1.946-9.282-2.577-11.514-2.723a1.018 1.018 0 0 0-.808.324c-.217.225-.34.542-.34.872V33.56c0 .661.485 1.198 1.083 1.198h6.5c.468 0 .884-.333 1.03-.827.158-.537 3.89-13.213 4.383-19.445a1.264 1.264 0 0 0-.334-.974Zm-5.87 18.85H2.168V13.27c3.482.305 7.239.966 8.604 1.7-.575 5.25-3.173 14.577-3.979 17.391Z" fill="url(#h)"/><path d="M50.918 13.184c-8.507 0-13.226 2.409-13.423 2.51a1.166 1.166 0 0 0-.578.745 1.32 1.32 0 0 0 .119.973c1.339 2.385 5.531 15.632 6.337 18.864.13.52.557.88 1.045.88h6.5c.598 0 1.083-.538 1.083-1.2V14.383c0-.664-.485-1.198-1.083-1.198Zm-1.084 21.574h-4.606c-1.027-3.701-4.06-13.352-5.752-17.341 1.653-.62 5.204-1.688 10.358-1.822v19.163Z" fill="url(#i)"/></g><defs><linearGradient id="b" x1="3.35" y1="8.105" x2="48.037" y2="60.361" gradientUnits="userSpaceOnUse"><stop stop-color="#1C2D5A"/><stop offset="1" stop-color="#4FC3DD" stop-opacity=".96"/></linearGradient><linearGradient id="c" x1="9.345" y1="15.206" x2="10.443" y2="21.506" gradientUnits="userSpaceOnUse"><stop stop-color="#1C2D5A"/><stop offset="1" stop-color="#4FC3DD" stop-opacity=".96"/></linearGradient><linearGradient id="d" x1="38.414" y1="31.616" x2="44.64" y2="39.68" gradientUnits="userSpaceOnUse"><stop stop-color="#1C2D5A"/><stop offset="1" stop-color="#4FC3DD" stop-opacity=".96"/></linearGradient><linearGradient id="e" x1="28.166" y1="29.66" x2="41.139" y2="43.194" gradientUnits="userSpaceOnUse"><stop stop-color="#1C2D5A"/><stop offset="1" stop-color="#4FC3DD" stop-opacity=".96"/></linearGradient><linearGradient id="f" x1="25.052" y1="33.446" x2="36.4" y2="45.286" gradientUnits="userSpaceOnUse"><stop stop-color="#1C2D5A"/><stop offset="1" stop-color="#4FC3DD" stop-opacity=".96"/></linearGradient><linearGradient id="g" x1="20.717" y1="35.84" x2="32.07" y2="47.681" gradientUnits="userSpaceOnUse"><stop stop-color="#1C2D5A"/><stop offset="1" stop-color="#4FC3DD" stop-opacity=".96"/></linearGradient><linearGradient id="h" x1="-1.625" y1="7.036" x2="27.567" y2="25.309" gradientUnits="userSpaceOnUse"><stop stop-color="#1C2D5A"/><stop offset="1" stop-color="#4FC3DD" stop-opacity=".96"/></linearGradient><linearGradient id="i" x1="34.982" y1="9.432" x2="65.873" y2="31.934" gradientUnits="userSpaceOnUse"><stop stop-color="#1C2D5A"/><stop offset="1" stop-color="#4FC3DD" stop-opacity=".96"/></linearGradient><clipPath id="a"><path fill="#fff" d="M0 0h52v52H0z"/></clipPath></defs></svg>
